X: 21172
Q: "Lively"
M: C
L: 1/8
K: G
cBcd efge | dBAG GFED | G3A B<d A>c | B2G2 G2 :|
|: ge |\
dBGB d3e | dBGB d2cB | {d}cBcd efga | f2d2 d2cB |\
{d}cBcd efge | dB{B}AG GFED | ~G3A B<d A<c | B2G2 G2 :|


